X: 6425
T: Castle, The
R: jig
M: 6/8
K: Adorian
|:cBA BAG|AGE DB,G,|~A,3 EGE|DEG A2B|
cBA BAG|AGE DB,G,|~A,3 EGE|DEG A2B:|
|:cBA a^ga|bag edB|GBd ~g3|GBd cBA|
cBc d^cd|ede gab|age dBG|EFG A2B:|

